X: 20763
T: Johnny I Do Miss You
R: polka
M: 2/4
K: Gmajor
g>e|:dB AG|Bd Bd|cd/c/ Bc/B/|A>B ge|
dB AG|BA/B/ DB|cB/c/ BA|G2 g>e:|
Bd d>c|Bd d>c|Bd ef|g>f/ g2|Bd d>c|
Bd g>a|ba/b/ ag|a2 a>c|Bd d>c|Bd d>c|
Bd ef|g2 g>e|dB AG|BA/B/ DB|cc BA|G4||

